logos/deviantart.svg

<?xml version="1.0" encoding="UTF-8"?>
<svg width="512px" height="130px" viewBox="0 0 512 130" version="1.1" xmlns="http://www.w3.org/2000/svg" xmlns:xlink="http://www.w3.org/1999/xlink">
    <title>Group</title>
    <g stroke="none" stroke-width="1" fill="none" fill-rule="evenodd">
        <g transform="translate(-0.000000, 0.000000)" fill-rule="nonzero">
            <polyline fill="#45AD47" points="79.8566929 23.4627462 79.8566929 0.00442038002 56.3977355 0.00442038002 54.0568285 2.36553485 42.9875652 23.4602203 39.5068316 25.8087051 0 25.8087051 0 58.0238039 21.719222 58.0238039 23.653454 60.3634481 0 105.562466 0 129.021423 23.4583258 129.021423 25.7998644 126.660941 36.8697592 105.565624 40.3498612 103.21777 79.8566929 103.21777 79.8566929 71.00204 58.1374709 71.00204 56.2051332 68.6466089 79.8566929 23.4627462"></polyline>
            <path d="M125.690351,106.63725 L132.355022,93.9166591 L135.429711,106.63725 L125.690351,106.63725 L125.690351,106.63725 Z M126.339516,71.0058289 L95.9803451,129.021423 L113.99592,129.021423 L118.401144,120.579129 L138.743103,120.577866 L140.755638,129.021423 L158.76995,129.021423 L144.885536,71.0058289 L126.339516,71.0058289 Z M187.102061,98.1280184 L179.404916,98.1280184 L179.404916,86.3975925 L187.102061,86.3975925 C191.792085,86.3975925 193.573497,88.7441828 193.573497,92.3095352 C193.573497,95.7833225 191.792085,98.1280184 187.102061,98.1280184 Z M211.218392,92.0234735 C211.218392,78.7010792 202.207763,71.0058289 189.540216,71.0058289 L162.049872,71.0058289 L162.049872,129.027107 L179.404916,129.027107 L179.404916,112.104629 L183.627643,112.104629 L187.074907,112.095157 L195.477418,129.027107 L213.493625,129.027107 L202.779886,108.554432 C208.034455,105.206941 211.218392,99.5330678 211.218392,92.0234735 Z M213.78537,71.0058289 L213.78537,86.3862258 L230.183717,86.3862258 L230.183717,129.027107 L240.065161,129.027107 L247.5255,114.754962 L247.5255,86.3862258 L262.398816,86.3862258 L270.440751,71.0058289 L213.78537,71.0058289 Z M311.012893,0.00442038002 L328.351519,0.00442038002 L328.351519,58.0174891 L311.012893,58.0174891 L311.012893,0.00442038002 Z M163.532594,0.0334685922 L155.741359,14.9074162 L160.525473,14.9074162 C169.06691,14.9074162 174.47493,20.3665857 174.47493,29.003377 C174.47493,37.5397625 169.06691,43.0008264 160.525473,43.0008264 L155.118716,43.0008264 L155.118716,16.095867 L138.3459,48.1164691 L138.3459,58.0086484 L161.68235,58.0086484 C180.486646,58.0086484 191.539491,46.6703733 191.539491,29.0027455 C191.539491,11.9198707 181.2078,0.759042416 163.532594,0.0334685922 Z M196.12532,58.0174891 L240.408057,58.0174891 L240.408057,42.6396181 L213.463314,42.6396181 L213.463314,36.3702561 L238.236387,36.3702561 L238.236387,21.6503904 L213.463314,21.6503904 L213.463314,15.3829228 L240.408057,15.3829228 L240.408057,0.00442038002 L196.12532,0.00442038002 L196.12532,58.0174891 Z M271.237051,35.1110793 L262.832645,0.00442038002 L244.835383,0.00442038002 L258.728006,58.0155947 L277.241821,58.0155947 L307.628777,0.00442038002 L289.611308,0.00442038002 L271.237051,35.1110793 Z M455.34462,0 L455.34462,15.3803969 L471.742967,15.3803969 L471.742967,58.0212781 L481.624411,58.0212781 L489.085381,43.7491336 L489.085381,15.3803969 L503.958697,15.3803969 L512,0 L455.34462,0 Z M361.43617,35.6364731 L368.090105,22.9272488 L371.164164,35.6364731 L361.43617,35.6364731 Z M362.111225,0.00442038002 L331.743845,58.0155947 L349.729108,58.0155947 L354.15012,49.5631964 L374.472503,49.5625649 L376.49009,58.0155947 L394.480405,58.0174891 L380.595361,0.00442038002 L362.111225,0.00442038002 Z M434.292875,27.4846607 L414.873513,0.00442038002 L397.773589,0.00442038002 L397.773589,58.0174891 L415.107162,58.0174891 L415.107162,28.5550241 L436.605997,58.0174891 L451.627711,58.0174891 L451.627711,0.00442038002 L434.292875,0.00442038002 L434.292875,27.4846607 Z" fill="#1F211F"></path>
        </g>
    </g>
</svg>

<svg viewBox="0 0 512 130" xmlns="http://www.w3.org/2000/svg">
  <g fill="none">
    <path fill="#45AD47" d="M79.857 23.463V.004h-23.46l-2.34 2.362-11.07 21.094-3.48 2.349H0v32.215h21.72l1.933 2.34L0 105.561v23.46h23.458l2.342-2.361 11.07-21.095 3.48-2.348h39.507V71.002h-21.72l-1.932-2.355 23.652-45.184"/>
    <path fill="#1F211F" d="m125.69 106.637 6.665-12.72 3.075 12.72h-9.74Zm.65-35.631L95.98 129.02h18.016l4.405-8.442 20.342-.001 2.013 8.443h18.014l-13.884-58.015H126.34Zm60.762 27.122h-7.697v-11.73h7.697c4.69 0 6.471 2.346 6.471 5.912 0 3.473-1.78 5.818-6.47 5.818Zm24.116-6.105c0-13.322-9.01-21.017-21.678-21.017h-27.49v58.021h17.355v-16.922h4.223l3.447-.01 8.402 16.932h18.017l-10.714-20.473c5.254-3.347 8.438-9.02 8.438-16.53Zm2.567-21.017v15.38h16.399v42.641h9.881l7.46-14.272V86.386H262.4l8.042-15.38h-56.656ZM311.013.004h17.339v58.013h-17.34V.004Zm-147.48.03-7.792 14.873h4.784c8.542 0 13.95 5.46 13.95 14.096 0 8.537-5.408 13.998-13.95 13.998h-5.406V16.096l-16.773 32.02v9.893h23.336c18.805 0 29.857-11.339 29.857-29.006 0-17.083-10.331-28.244-28.006-28.97Zm32.592 57.983h44.283V42.64h-26.945v-6.27h24.773V21.65h-24.773v-6.267h26.945V.004h-44.283v58.013Zm75.112-22.906L262.833.004h-17.998l13.893 58.012h18.514L307.629.004H289.61l-18.374 35.107ZM455.345 0v15.38h16.398v42.641h9.881l7.461-14.272V15.38h14.874L512 0h-56.655Zm-93.909 35.636 6.654-12.709 3.074 12.71h-9.728Zm.675-35.632-30.367 58.012h17.985l4.421-8.453h20.323l2.017 8.453 17.99.001L380.595.004h-18.484Zm72.182 27.48L414.873.005h-17.1v58.013h17.334V28.555l21.499 29.462h15.022V.004h-17.335v27.48Z"/>
  </g>
</svg>
